logo/rubymine.svg

<?xml version="1.0" encoding="UTF-8"?>
<svg width="256px" height="256px" viewBox="0 0 256 256" version="1.1" xmlns="http://www.w3.org/2000/svg" preserveAspectRatio="xMidYMid">
    <title>RubyMine</title>
    <defs>
        <linearGradient x1="55.2713581%" y1="73.8248625%" x2="39.5092184%" y2="35.4035019%" id="rubymineLinearGradient-1">
            <stop stop-color="#FE2857" offset="0%"></stop>
            <stop stop-color="#FE3052" offset="6%"></stop>
            <stop stop-color="#FD533B" offset="33%"></stop>
            <stop stop-color="#FC6C2A" offset="58%"></stop>
            <stop stop-color="#FC7B20" offset="81%"></stop>
            <stop stop-color="#FC801D" offset="100%"></stop>
        </linearGradient>
        <linearGradient x1="19.0472854%" y1="2.91715286%" x2="50.1410335%" y2="36.3282769%" id="rubymineLinearGradient-2">
            <stop stop-color="#6B57FF" offset="0%"></stop>
            <stop stop-color="#FE2857" offset="100%"></stop>
        </linearGradient>
        <linearGradient x1="9.77490556%" y1="7.99954354%" x2="73.276839%" y2="97.5122675%" id="rubymineLinearGradient-3">
            <stop stop-color="#6B57FF" offset="0%"></stop>
            <stop stop-color="#FE2857" offset="30%"></stop>
            <stop stop-color="#FE2857" offset="63%"></stop>
            <stop stop-color="#FE3052" offset="64%"></stop>
            <stop stop-color="#FD533B" offset="70%"></stop>
            <stop stop-color="#FC6C2A" offset="76%"></stop>
            <stop stop-color="#FC7B20" offset="81%"></stop>
            <stop stop-color="#FC801D" offset="85%"></stop>
        </linearGradient>
    </defs>
    <g>
        <polygon fill="url(#rubymineLinearGradient-1)" points="212.906667 0 139.653333 26.24 81.92 0 62.9066667 47.8933333 50.6133333 47.8933333 50.6133333 189.28 228.4 190.826667 256 50.0266667"></polygon>
        <polygon fill="url(#rubymineLinearGradient-2)" points="210.72 91.8666667 93.7333333 22.5333333 210.72 159.653333"></polygon>
        <polygon fill="url(#rubymineLinearGradient-3)" points="106.56 249.333333 202.24 236.586667 187.386667 208.026667 210.72 208.026667 210.72 159.653333 93.7066667 22.32 0 45.3333333 0.106666667 179.733333 53.9733333 256 106.266667 249.36 106.506667 249.333333"></polygon>
        <polygon fill="#000000" points="50.6666667 48 210.666667 48 210.666667 208 50.6666667 208"></polygon>
        <path d="M70.6133333,177.76 L130.613333,177.76 L130.613333,187.76 L70.6133333,187.76 L70.6133333,177.76 Z M129.893333,67.92 L144.16,67.92 L159.973333,93.36 L175.786667,67.92 L190.053333,67.92 L190.053333,128.053333 L176.906667,128.053333 L176.906667,88.8 L159.973333,114.48 L159.626667,114.48 L142.88,89.0666667 L142.88,128.053333 L129.893333,128.053333 L129.893333,67.92 Z M70.6666667,68 L98.1333333,68 C105.742222,68 111.573333,70.0266667 115.626667,74.08 C119.144024,77.7638962 121.003275,82.7251093 120.773333,87.8133333 L120.773333,88 C120.968362,92.2470667 119.707738,96.4334667 117.2,99.8666667 C114.799226,102.951458 111.571829,105.291091 107.893333,106.613333 L122.586667,127.946667 L107.12,127.946667 L94.6666667,109.52 L83.76,109.52 L83.76,127.973333 L70.6666667,127.973333 L70.6666667,68 Z M97.3333333,97.0933333 C100.009033,97.2118428 102.635872,96.3488741 104.72,94.6666667 C106.476199,93.0974936 107.451752,90.8342094 107.386667,88.48 L107.386667,88.32 C107.588178,85.872776 106.5949,83.4789761 104.72,81.8933333 C102.493089,80.3360099 99.806141,79.575021 97.0933333,79.7333333 L83.8133333,79.7333333 L83.8133333,96.9866667 L97.3333333,97.0933333 Z" fill="#FFFFFF"></path>
    </g>
</svg>

<svg viewBox="0 0 256 256" xmlns="http://www.w3.org/2000/svg"><defs><linearGradient id="a" x1="55.271%" x2="39.509%" y1="73.824%" y2="35.403%"><stop offset="0%" stop-color="#FE2857"/><stop offset="6%" stop-color="#FE3052"/><stop offset="33%" stop-color="#FD533B"/><stop offset="58%" stop-color="#FC6C2A"/><stop offset="81%" stop-color="#FC7B20"/><stop offset="100%" stop-color="#FC801D"/></linearGradient><linearGradient id="b" x1="19.047%" x2="50.141%" y1="2.917%" y2="36.328%"><stop offset="0%" stop-color="#6B57FF"/><stop offset="100%" stop-color="#FE2857"/></linearGradient><linearGradient id="c" x1="9.774%" x2="73.276%" y1="7.999%" y2="97.512%"><stop offset="0%" stop-color="#6B57FF"/><stop offset="30%" stop-color="#FE2857"/><stop offset="63%" stop-color="#FE2857"/><stop offset="64%" stop-color="#FE3052"/><stop offset="70%" stop-color="#FD533B"/><stop offset="76%" stop-color="#FC6C2A"/><stop offset="81%" stop-color="#FC7B20"/><stop offset="85%" stop-color="#FC801D"/></linearGradient></defs><path fill="url(#a)" d="M212.9 0l-73.26 26.24L81.9 0 62.88 47.89l-12.3 0 0 141.38 177.78 1.54 27.6-140.8Z"/><path fill="url(#b)" d="M210.72 91.86L93.73 22.52l116.98 137.12Z"/><path fill="url(#c)" d="M106.56 249.33l95.68-12.75 -14.86-28.56 23.33 0 0-48.38L93.69 22.3 -.02 45.31l.1 134.4 53.86 76.26 52.29-6.64 .24-.03Z"/><path d="M50.66 48l160 0 0 160 -160 0Z"/><path fill="#FFF" d="M70.61 177.76h60v10h-60v-10Zm59.28-109.84h14.26l15.81 25.44 15.81-25.44h14.26v60.13h-13.15V88.79l-16.94 25.68h-.35l-16.75-25.42v38.98h-12.99V67.89ZM70.66 68h27.46c7.6 0 13.44 2.02 17.49 6.08 3.51 3.68 5.37 8.64 5.14 13.73v.18c.19 4.24-1.07 8.43-3.58 11.86 -2.41 3.08-5.63 5.42-9.31 6.74l14.69 21.33h-15.47l-12.46-18.43H83.71v18.45h-13.1V67.96Zm26.66 29.09c2.67.11 5.3-.75 7.38-2.43 1.75-1.57 2.73-3.84 2.66-6.19v-.16c.2-2.45-.8-4.85-2.67-6.43 -2.23-1.56-4.92-2.32-7.63-2.16H83.78v17.25l13.52.1Z"/></svg>
